X:1
T:6 vierstimmige Hymnen oder Figuralgesänge
T:Der Tod des Erlösers
T:Friedrich Silcher
T:Der Tod des Erlösers
T:Op. 9, 4
T:CPDL   —   Creative Commons Attribution Non Commercial 3.0
T:CPDL   —   Creative Commons Attribution Non Commercial 3.0
T:CPDL   —   Creative Commons Attribution Non Commercial 3.0
T:CPDL   —   Creative Commons Attribution Non Commercial 3.0
C:Friedrich Silcher
Z:CPDL   —   Creative Commons Attribution Non Commercial 3.0
%%score [ ( 1 2 ) ( 3 4 ) ]
L:1/8
Q:1/4=66
M:4/4
K:Eb
V:1 treble nm="Sopran\nAlt"
V:2 treble 
V:3 bass nm="Tenor\nBass"
V:4 bass 
V:1
"^Sehr langsam"!mf! C2 |!<(! E2 G2!<)! c3 c |!>(! =B6!>)! G2 |!<(! =B2 d2!<)! f3 f | %4
w: Schau|hin nach Gol- ga-|tha, schau|hin nach Gol- ga-|
w: ||||
!>(! e4!>)! z2!p! e2 | d2 c2 =B2 c2 | G8- | G6 G2 |!<(! A3 c!<)! f2 d2 |!>(! c4!>)! =B2!p! G2 | %10
w: tha! Dort|schwebt am Kreu- zes-|stamm,|_ im|To- des- kampf dein|Je- sus, im|
w: ||||||
 G3 F E2 F2 |!>(! E4 D2!>)!!mf! G2 | e3 c _B2 B2 | B6- BA |!>(! G4!>)! z2!mf! G2 | c3 c e2 e2 | %16
w: To- des- kampf dein|Je- sus, mit|dei- ner Schuld be-|la- * *|den, mit|dei- ner Schuld be-|
w: ||||||
 d6- d!>(!c | B2!>)! |!p! G2!<(! G2 G2!<)! | (=A4 c2) A2 |!>(! (G6 ^F2)!>)! | G4 z2!f! G2 | %22
w: la- * *|den,|mit dei- ner|Schuld _ be-|la- *|den. Schau|
w: ||||||
 !fermata!e6!p! E!>(!F | !fermata!G4 !fermata!z2!>)! |!mf! C2 |!<(! E2 G2!<)! c3!>(! c | %26
w: hin! Schau _|hin!|Schau|hin nach Gol- ga-|
w: ||||
 =B6!>)!!<(! G2 | =B2 d2!<)! f3 f |!>(! e4!>)! z2 |!p!"^Soli" e2 | d2 c2 =B2 c2 | G8- | %32
w: tha, schau|hin nach Gol- ga-|tha!|Er|neigt sein ster- bend|Haupt;|
w: ||||||
 G4 z2!p! G2 |!<(! A4 G4!<)! |!>(! F4!>)! z2!p! G2 |!<(! F4 E4!<)! |!>(! D4!>)! z2!p! d2 | %37
w: _ es|bricht sein|Herz, es|bricht sein|Herz. Selbst|
w: |||||
!<(! (d4!<)! f2) e2 |!>(! e4!>)! d2!p! =B2 |!<(! (=B4!<)! d2) c2 |!>(! c4 =B2!>)!!mf! d2 | %41
w: En- * gel|wei- nen, selbst|En- * gel|wei- nen, des|
w: ||||
 e3 e c2!>(! G2 | A6!>)! |"^Chor"!mf! F2 | G3!>(! G G3 F!>)! | E6 c2 | A6 F2 |!>(! E4 D4!>)! | %48
w: Welt- er- lö- sers|Tod,|des||Tod, des|Welt- er-|lö- sers|
w: |||||||
 !fermata!C4 !fermata!z2 |:"^Choral"!mf! EF |!<(! GA B2 B2!<)! B2 |!>(! c4!>)! !fermata!B2!p! B2 | %52
w: Tod.|O _|Lamm _ Got- tes, un-|schul- dig am|
w: |All- *|zeit _ fun- den ge-|dul- dig, wie-|
 E2 F2 G2 AG |1!>(! F4!>)! !fermata!G2 :|2!>(! F4!>)! !fermata!E2 e2 || c2 d2 e2 c2 | %56
w: Stamm des Kreu- zes ge-|schlach- tet!|ach- tet. All'|Sünd' hast du ge-|
w: wohl du wa- rest ver \-||||
!>(! (B2 =A2)!>)! !fermata!B2!f! B2 | B2 _A2 G2 c2 | (B3!>(! A)!>)! !fermata!G4 | %59
w: tra- * gen, sonst|müss- ten wir ver-|za- * gen!|
w: |||
 z2!mf!!<(! c2 !>!c2!<)! BA |!>(! (G2 F2) B2!>)!!p! E2 | F8 | !fermata!G8 | z2!p! c2 c2 BA | %64
w: Er- barm dich _|un- * ser, o|Je-|su!|Gib uns den _|
w: |||||
!>(! (G2 F2) B2!>)!!pp! E2 | F8 | !fermata!E6 |] %67
w: Frie- * den, o|Je-|su!|
w: |||
V:2
 C2 | C2 E2 E3 F | G6 G2 | G2 G2 G3 G | G4 x2 G2 | F2 E2 D2 C2 | =B,2 G2 F2 E2 | D6 E2 | %8
w: |||||* * Kreu- zes  \-|stamm, am Kreu- zes-|stamm, *|
 F3 A A2 A2 | G4 G2 D2 | D3 D C2 D2 | C4 =B,2 G2 | E3 E F2 G2 | F8 | E4 x2 G2 | G3 G G2 G2 | %16
w: ||||||||
 (G2 ^F=E F2 D2) | D2 | D2 D2 D2 | E6 E2 | D8 | D4 x2 G2 | G6 C2 | =B,4 x2 | C2 | C2 E2 E3 F | %26
w: ||||||||||
 G6 G2 | G2 G2 G3 G | G4 x2 | G2 | F2 E2 D2 C2 | =B,2 G2 F2 E2 | D4 x2 E2 | F4 E4 | D4 x2 E2 | %35
w: |||||Haupt, sein ster- bend|Haupt; *|||
 D4 C4 | =B,4 x2 G2 | G6 G2 | G4 G2 G2 | G6 G2 | G4 G2 G2 | G3 G G2 G2 | F6 | F2 | E3 E D2 D2 | %45
w: |||||||||Welt- er- lö- sers|
 C6 G2 | F6 D2 | C4 =B,4 | C4 x2 |: E2 | E2 E2 D2 E2 | E4 E2 D2 | C2 B,2 E2 CE |1 (E2 D2) E2 :|2 %54
w: |||||||||
 (E2 D2) E2 G2 || F2 F2 E2 G2 | (F3 E) D2 F2 | F2 EF E2 E2 | (D2 F2) E4 | x2 E2 A2 F2 | %60
w: ||||||
 (E2 D2) E2 C2 | (C4 D4) | E8 | x2 E2 A2 F2 | (E2 D2) E2 E2 | (E4 D4) | E6 |] %67
w: |||||||
V:3
!mf! E,2 |!<(! G,2 C2!<)! C3 C |!>(! D6!>)! =B,2 |!<(! D2 =B,2!<)! D3 D |!>(! C4!>)! z4 | %5
w: |||||
 z4 z2!p! E2 | D2 C2 =B,2 C2 | =B,6 C2 |!<(! C3 C!<)! C2 D2 |!>(! E4!>)! D2!p! =B,2 | %10
w: Dort|schwebt am Kreu- zes-|stamm, *|||
 G,3 G, G,2 A,2 |!>(! G,4 G,2!>)!!mf! G,2 | G,3 G, _B,2 E2 | (E2 DC D2 B,2) | %14
w: ||||
!>(! B,4!>)! z2!mf! B,2 | C3 C C2 C2 | =A,8 | B,2 |!p! B,2!<(! D2 B,2!<)! | (C4 =A,2) C2 | %20
w: ||||||
!>(! (B,4 =A,4)!>)! | B,4 z2!f! G,2 | !fermata!C6!p! G,2 |!>(! !fermata!G,4 !fermata!z2!>)! | %24
w: ||||
!mf! E,2 |!<(! G,2 C2!<)! C3!>(! C | D6!>)!!<(! =B,2 | D2 =B,2!<)! D3 D |!>(! C4!>)! z2 | z2 | %30
w: ||||||
 z4 z2!p! E2 | D2 C2 =B,2 C2 | =B,4 z4 | z8 | z8 | z8 | z4 z2!p! =B,2 |!<(! (=B,4!<)! D2) C2 | %38
w: Er|neigt sein ster- bend|Haupt;||||||
!>(! C4!>)! =B,2!p! D2 |!<(! (D4!<)! F2) E2 |!>(! E4 D2!>)!!mf! =B,2 | C3 C C2!>(! C2 | C6!>)! | %43
w: |||||
!mf! C2 | C3!>(! C C2 =B,2!>)! | C6 C2 | C6 A,2 |!>(! G,4 F,4!>)! | !fermata!E,4 !fermata!z2 |: %49
w: ||||||
!mf! G,A, |!<(! B,A, G,2 F,2!<)! B,2 |!>(! A,4!>)! !fermata!G,2!p! B,2 | G,2 F,2 B,2 A,B, |1 %53
w: ||||
!>(! (C2 B,2)!>)! !fermata!B,2 :|2!>(! (C2 B,)A,!>)! !fermata!G,2 B,2 || =A,2 B,2 G,2 E2 | %56
w: |||
!>(! (D2 C2)!>)! !fermata!B,2!f! D2 | D2 C2 B,2 A,G, | (F,2!>(! D,2)!>)! !fermata!E,4 | %59
w: |||
 z2!mf!!<(! C2 !>!E2!<)! D2 |!>(! B,4 B,2!>)!!p! G,2 | (C4 B,4) | !fermata!B,8 | z2!p! C2 E2 D2 | %64
w: |||||
!>(! B,4 B,2!>)!!pp! G,2 | (C4 B,2 A,2) | !fermata!G,6 |] %67
w: |||
V:4
 C,2 | C,2 C,2 A,3 A, | G,6 G,2 | G,2 G,2 =B,,3 B,, | C,4 x4 | x4 x2 G,2 | F,2 E,2 D,2 C,2 | %7
 G,,6 C,2 | F,3 F, F,2 F,2 | G,4 G,2 G,,2 | =B,,3 B,, C,2 F,2 | G,4 G,,2 G,2 | C,3 C, D,2 E,2 | %13
 (B,,6 D,2) | E,4 x2 E,2 | E,3 E, C,2 C,2 | (D,6 ^F,2) | G,2 | G,2 B,2 G,2 | C,6 C,2 | D,8 | %21
 [G,,G,]4 x2 G,2 | C,6 C,2 | G,,4 x2 | C,2 | C,2 C,2 A,3 A, | G,6 G,2 | G,2 G,2 =B,,3 B,, | %28
 C,4 x2 | x2 | x4 x2 G,2 | F,2 E,2 D,2 C,2 | G,,4 x4 | x8 | x8 | x8 | z8 | z8 | z8 | z8 | %40
 z4 z2 G,2 | C,3 C, E,2 E,2 | F,6 | A,2 | G,3 G, G,2 G,2 | A,6 E,2 | F,6 F,2 | G,4 G,,4 | C,4 x2 |: %49
 E,2 | E,2 E,2 B,,A,, G,,2 | (A,,2 C,2) E,2 B,,2 | C,2 D,2 E,2 F,G, |1 (A,2 B,2) E,2 :|2 %54
 (A,2 B,2) E,2 E,2 || F,2 B,,2 C,2 E,2 | F,4 B,,2 B,,2 | B,,2 C,D, E,2 A,,2 | B,,4 C,4 | %59
 x2 A,,2 A,,2 B,,2 | (E,2 B,,)A,, G,,2 C,2 | (A,,4 B,,4) | E,8 | x2 A,,2 A,,2 B,,2 | %64
 (E,2 B,,)A,, G,,2 C,2 | (A,,4 B,,4) | [E,,E,]6 |] %67

